icons/communication/reply-24.svg

<svg width="24" height="24" viewBox="0 0 24 24" fill="none" xmlns="http://www.w3.org/2000/svg">
<path fill-rule="evenodd" clip-rule="evenodd" d="M12.5 8.2809V5.04503C12.5 4.18971 11.4959 3.72914 10.8477 4.28711L3.34808 10.7421C2.88454 11.141 2.88454 11.8589 3.34808 12.2579L10.8477 18.7129C11.4959 19.2709 12.5 18.8103 12.5 17.955V14.8566C13.9944 14.9148 15.3639 15.239 16.5224 15.8863C17.7976 16.5988 18.858 17.7247 19.5576 19.4158C19.6944 19.7464 20.0456 19.9344 20.3964 19.8646C20.7473 19.7949 21 19.4869 21 19.129V18C21 15.0231 20.0035 12.5828 18.353 10.8827C16.8175 9.30109 14.7512 8.39745 12.5 8.2809ZM11 9.00781V6.13508L4.76689 11.5L11 16.8649V14.0932C11 13.679 11.3442 13.347 11.8709 13.347C13.7402 13.347 15.6855 13.7006 17.2535 14.5767C18.037 15.0144 18.7481 15.5771 19.3665 16.2762C19.0729 14.4584 18.3153 12.9968 17.2775 11.9278C15.9276 10.5374 14.0628 9.76801 11.9997 9.76801C11.2891 9.76801 11 9.42202 11 9.00781Z" fill="black"/>
</svg>

<svg xmlns="http://www.w3.org/2000/svg" width="24" height="24"><path fill-rule="evenodd" d="M12.5 8.28V5.046a1 1 0 00-1.652-.758l-7.5 6.455a1 1 0 000 1.516l7.5 6.455a1 1 0 001.652-.758v-3.098c1.494.058 2.864.382 4.022 1.03 1.276.712 2.336 1.838 3.036 3.529A.75.75 0 0021 19.129V18c0-2.977-.997-5.417-2.647-7.117C16.817 9.3 14.751 8.397 12.5 8.28zm-1.5.728V6.135L4.767 11.5 11 16.865v-2.772c0-.414.344-.746.87-.746 1.87 0 3.816.354 5.383 1.23.784.437 1.495 1 2.113 1.7-.293-1.819-1.05-3.28-2.088-4.35-1.35-1.39-3.215-2.159-5.278-2.159-.71 0-1-.346-1-.76z"/></svg>
